rate.svg

<svg xmlns="http://www.w3.org/2000/svg" width="142" height="142" viewBox="0 0 142 142"><defs><clipPath id="yp9oa"><path d="M17 109.798V33h107.765v76.798z"/></clipPath></defs><g><g><g><path fill="#fbfbfb" d="M71 0c39.212 0 71 31.788 71 71s-31.788 71-71 71S0 110.212 0 71 31.788 0 71 0z"/></g><g><g><g/><g clip-path="url(#yp9oa)"><path d="M70.423 68.688c-9.373 0-16.999-7.626-16.999-16.999 0-9.373 7.626-16.997 17-16.997 9.372 0 16.998 7.624 16.998 16.997 0 9.373-7.626 17-16.999 17m18.69-17C89.113 41.384 80.73 33 70.423 33c-10.305 0-18.69 8.384-18.69 18.69 0 10.306 8.385 18.69 18.69 18.69 10.306 0 18.69-8.384 18.69-18.69"/></g><g clip-path="url(#yp9oa)"><path d="M45.231 98.888c-.125-.077-12.547-7.794-15.13-11.67-2.652-3.977-11.171-21.744-11.228-21.854-.038-.104-.91-2.571 1.48-4.124.582-.38 1.171-.48 1.805-.307 1.574.428 3.038 2.442 3.465 3.296.404.807 8.142 13.233 9 13.876.623.467 5.282 3.212 5.812 3.523a.847.847 0 0 0 1.006-1.347c-.628-.59-2.251-2.468-2.215-4.06.014-.623.285-1.155.83-1.621 2.53-2.167 5.516.737 5.664.883L57.702 86.59l1.197-1.197-12.007-11.127c-1.443-1.443-4.96-3.5-7.937-.948-.919.786-1.397 1.753-1.42 2.873-.015.685.15 1.361.408 1.991-1.134-.68-2.069-1.249-2.25-1.382-.722-.747-7.947-12.109-8.557-13.327-.473-.946-2.209-3.54-4.534-4.172-1.093-.296-2.19-.117-3.171.521-2.84 1.846-2.642 4.825-2.112 6.205.352.736 8.656 18.054 11.374 22.13 2.612 3.918 13.618 10.9 15.417 12.026l1.21-1.21c-.031-.028-.053-.062-.089-.084"/></g><g clip-path="url(#yp9oa)"><path d="M50.977 100.514a1.337 1.337 0 1 0 0 2.675 1.337 1.337 0 0 0 0-2.675"/></g><g clip-path="url(#yp9oa)"><path d="M63.23 84.887c-1.02-1.023-2.803-1.023-3.824 0l-.506.506-1.197 1.197L45.32 98.972l-1.211 1.21-.047.047a2.69 2.69 0 0 0-.792 1.912c0 .723.282 1.402.793 1.912l4.953 4.953c.51.511 1.19.792 1.912.792s1.402-.28 1.912-.792l15.343-15.342a2.708 2.708 0 0 0 0-3.824zm3.757 7.581l-15.342 15.343a1.036 1.036 0 0 1-1.432 0l-4.953-4.954a1.004 1.004 0 0 1-.297-.716c0-.27.106-.525.297-.716l15.342-15.342c.191-.191.446-.296.716-.296.27 0 .525.105.716.296l4.953 4.953a1.013 1.013 0 0 1 0 1.432"/></g><g clip-path="url(#yp9oa)"><path d="M122.327 59.821c-.982-.637-2.078-.815-3.172-.52-2.324.631-4.061 3.225-4.533 4.17-.61 1.219-7.835 12.579-8.503 13.282-.21.156-1.162.74-2.305 1.427.258-.63.423-1.305.408-1.99-.024-1.12-.501-2.086-1.42-2.874-2.977-2.552-6.494-.494-7.915.927L82.86 85.393l1.196 1.197L96.06 75.463c.124-.124 3.111-3.028 5.64-.863.545.466.816.998.83 1.623.036 1.59-1.586 3.469-2.215 4.058a.846.846 0 0 0 1.007 1.347c.53-.311 5.189-3.055 5.812-3.523.86-.644 8.597-13.07 9-13.876.426-.854 1.891-2.87 3.464-3.296.631-.174 1.223-.072 1.806.308 2.39 1.552 1.518 4.02 1.509 4.055-.086.178-8.605 17.945-11.257 21.923-2.583 3.875-15.005 11.592-15.13 11.669-.037.022-.058.057-.088.083l1.21 1.211c1.797-1.124 12.804-8.107 15.416-12.025 2.717-4.076 11.022-21.395 11.403-22.195.5-1.316.698-4.294-2.14-6.14"/></g><g clip-path="url(#yp9oa)"><path d="M90.78 100.514a1.337 1.337 0 1 0 0 2.675 1.337 1.337 0 0 0 0-2.675"/></g><g clip-path="url(#yp9oa)"><path d="M84.055 86.59l-1.197-1.197-.507-.506c-1.02-1.022-2.802-1.022-3.824 0l-4.953 4.953c-.511.51-.793 1.19-.793 1.912s.282 1.401.793 1.912l15.342 15.343c.51.51 1.19.791 1.912.791.723 0 1.402-.28 1.913-.791l4.952-4.954c.511-.51.793-1.19.793-1.912s-.282-1.401-.793-1.912l-.045-.046-1.211-1.21zm12.443 16.267l-4.953 4.953a1.035 1.035 0 0 1-1.433 0L74.77 92.468a1.014 1.014 0 0 1 0-1.432l4.953-4.953a1.011 1.011 0 0 1 1.432 0l15.343 15.342c.19.191.296.446.296.716 0 .271-.105.525-.296.716"/></g><g clip-path="url(#yp9oa)"><path d="M77.141 43.285a.737.737 0 0 0-.242-.571.849.849 0 0 0-.593-.22c-.292 0-.556.132-.79.396l-12.21 16.162a.996.996 0 0 0-.263.659c0 .263.102.453.307.57a.82.82 0 0 0 .527.176c.352 0 .615-.132.79-.395L76.922 43.9a.93.93 0 0 0 .22-.615"/></g><g clip-path="url(#yp9oa)"><path d="M77.624 58.108c-.41.454-.98.68-1.712.68-.703 0-1.26-.226-1.67-.68-.41-.453-.615-1.047-.615-1.78 0-.702.205-1.273.615-1.712.41-.44.967-.658 1.67-.658.731 0 1.302.219 1.712.658.41.44.615 1.01.615 1.712 0 .733-.205 1.327-.615 1.78m-1.712-5.776c-1.172 0-2.168.382-2.988 1.142-.82.762-1.229 1.713-1.229 2.854 0 1.172.41 2.138 1.23 2.9.819.76 1.815 1.141 2.987 1.141 1.2 0 2.195-.38 2.986-1.141.79-.762 1.186-1.728 1.186-2.9 0-1.141-.396-2.092-1.186-2.854-.79-.76-1.786-1.142-2.986-1.142"/></g><g clip-path="url(#yp9oa)"><path d="M62.692 46.491c0-.703.205-1.28.615-1.735.41-.453.981-.68 1.713-.68.703 0 1.266.227 1.69.68.425.455.637 1.032.637 1.735 0 .733-.212 1.318-.637 1.757-.424.44-.987.659-1.69.659-.732 0-1.304-.22-1.713-.66-.41-.438-.615-1.023-.615-1.756m5.292 2.877c.776-.747 1.164-1.706 1.164-2.877 0-1.17-.388-2.137-1.164-2.898-.775-.762-1.764-1.142-2.964-1.142-1.172 0-2.174.38-3.009 1.142-.834.76-1.251 1.728-1.251 2.898 0 1.172.417 2.13 1.251 2.877.835.746 1.837 1.12 3.009 1.12 1.2 0 2.189-.374 2.964-1.12"/></g></g></g></g></g></svg>

<?xml version="1.0" encoding="UTF-8" standalone="no"?>
<!DOCTYPE svg PUBLIC "-//W3C//DTD SVG 1.1//EN" "http://www.w3.org/Graphics/SVG/1.1/DTD/svg11.dtd">
<svg width="100%" height="100%" viewBox="0 0 142 142" version="1.1" xmlns="http://www.w3.org/2000/svg" xmlns:xlink="http://www.w3.org/1999/xlink" xml:space="preserve" xmlns:serif="http://www.serif.com/" style="fill-rule:evenodd;clip-rule:evenodd;stroke-linejoin:round;stroke-miterlimit:2;">
    <g>
        <g>
            <g>
                <g>
                    <g>
                        <path d="M70.423,68.688C61.05,68.688 53.424,61.062 53.424,51.689C53.424,42.316 61.05,34.692 70.424,34.692C79.796,34.692 87.422,42.316 87.422,51.689C87.422,61.062 79.796,68.689 70.423,68.689M89.113,51.689C89.113,41.384 80.73,33 70.423,33C60.118,33 51.733,41.384 51.733,51.69C51.733,61.996 60.118,70.38 70.423,70.38C80.729,70.38 89.113,61.996 89.113,51.69" style="fill-rule:nonzero;"/>
                    </g>
                    <g>
                        <clipPath id="_clip1">
                            <rect x="17" y="33" width="107.765" height="76.798"/>
                        </clipPath>
                        <g clip-path="url(#_clip1)">
                            <path d="M45.231,98.888C45.106,98.811 32.684,91.094 30.101,87.218C27.449,83.241 18.93,65.474 18.873,65.364C18.835,65.26 17.963,62.793 20.353,61.24C20.935,60.86 21.524,60.76 22.158,60.933C23.732,61.361 25.196,63.375 25.623,64.229C26.027,65.036 33.765,77.462 34.623,78.105C35.246,78.572 39.905,81.317 40.435,81.628C40.563,81.701 40.708,81.739 40.855,81.739C41.319,81.739 41.702,81.357 41.702,80.892C41.702,80.662 41.607,80.441 41.441,80.281C40.813,79.691 39.19,77.813 39.226,76.221C39.24,75.598 39.511,75.066 40.056,74.6C42.586,72.433 45.572,75.337 45.72,75.483L57.702,86.59L58.899,85.393L46.892,74.266C45.449,72.823 41.932,70.766 38.955,73.318C38.036,74.104 37.558,75.071 37.535,76.191C37.52,76.876 37.685,77.552 37.943,78.182C36.809,77.502 35.874,76.933 35.693,76.8C34.971,76.053 27.746,64.691 27.136,63.473C26.663,62.527 24.927,59.933 22.602,59.301C21.509,59.005 20.412,59.184 19.431,59.822C16.591,61.668 16.789,64.647 17.319,66.027C17.671,66.763 25.975,84.081 28.693,88.157C31.305,92.075 42.311,99.057 44.11,100.183L45.32,98.973C45.289,98.945 45.267,98.911 45.231,98.889" style="fill-rule:nonzero;"/>
                        </g>
                    </g>
                    <g>
                        <path d="M50.977,100.514C50.243,100.514 49.64,101.118 49.64,101.851C49.64,102.585 50.243,103.189 50.977,103.189C51.711,103.189 52.314,102.585 52.314,101.851C52.314,101.118 51.711,100.514 50.977,100.514" style="fill-rule:nonzero;"/>
                    </g>
                    <g>
                        <path d="M63.23,84.887C62.21,83.864 60.427,83.864 59.406,84.887L57.703,86.59L45.32,98.972L44.109,100.182L44.062,100.229C43.554,100.735 43.268,101.424 43.27,102.141C43.27,102.864 43.552,103.543 44.063,104.053L49.016,109.006C49.526,109.517 50.206,109.798 50.928,109.798C51.65,109.798 52.33,109.518 52.84,109.006L68.183,93.664C69.23,92.614 69.23,90.89 68.183,89.84L63.23,84.887ZM66.987,92.468L51.645,107.811C51.247,108.192 50.611,108.192 50.213,107.811L45.26,102.857C45.069,102.668 44.962,102.41 44.963,102.141C44.963,101.871 45.069,101.616 45.26,101.425L60.602,86.083C60.793,85.892 61.048,85.787 61.318,85.787C61.588,85.787 61.843,85.892 62.034,86.083L66.987,91.036C67.38,91.429 67.38,92.075 66.987,92.468" style="fill-rule:nonzero;"/>
                    </g>
                    <g>
                        <clipPath id="_clip2">
                            <rect x="17" y="33" width="107.765" height="76.798"/>
                        </clipPath>
                        <g clip-path="url(#_clip2)">
                            <path d="M122.327,59.821C121.345,59.184 120.249,59.006 119.155,59.301C116.831,59.932 115.094,62.526 114.622,63.471C114.012,64.69 106.787,76.05 106.119,76.753C105.909,76.909 104.957,77.493 103.814,78.18C104.072,77.55 104.237,76.875 104.222,76.19C104.198,75.07 103.721,74.104 102.802,73.316C99.825,70.764 96.308,72.822 94.887,74.243L82.86,85.393L84.056,86.59L96.06,75.463C96.184,75.339 99.171,72.435 101.7,74.6C102.245,75.066 102.516,75.598 102.53,76.223C102.566,77.813 100.944,79.692 100.315,80.281C100.144,80.441 100.047,80.665 100.047,80.899C100.047,81.363 100.429,81.745 100.893,81.745C101.044,81.745 101.192,81.705 101.322,81.628C101.852,81.317 106.511,78.573 107.134,78.105C107.994,77.461 115.731,65.035 116.134,64.229C116.56,63.375 118.025,61.359 119.598,60.933C120.229,60.759 120.821,60.861 121.404,61.241C123.794,62.793 122.922,65.261 122.913,65.296C122.827,65.474 114.308,83.241 111.656,87.219C109.073,91.094 96.651,98.811 96.526,98.888C96.489,98.91 96.468,98.945 96.438,98.971L97.648,100.182C99.445,99.058 110.452,92.075 113.064,88.157C115.781,84.081 124.086,66.762 124.467,65.962C124.967,64.646 125.165,61.668 122.327,59.822" style="fill-rule:nonzero;"/>
                        </g>
                    </g>
                    <g>
                        <path d="M90.78,100.514C90.046,100.514 89.443,101.118 89.443,101.851C89.443,102.585 90.046,103.189 90.78,103.189C91.514,103.189 92.118,102.585 92.118,101.851C92.118,101.118 91.514,100.514 90.78,100.514" style="fill-rule:nonzero;"/>
                    </g>
                    <g>
                        <clipPath id="_clip3">
                            <rect x="17" y="33" width="107.765" height="76.798"/>
                        </clipPath>
                        <g clip-path="url(#_clip3)">
                            <path d="M84.055,86.59L82.858,85.393L82.351,84.887C81.331,83.865 79.549,83.865 78.527,84.887L73.574,89.84C73.063,90.35 72.781,91.03 72.781,91.752C72.781,92.474 73.063,93.153 73.574,93.664L88.916,109.007C89.426,109.517 90.106,109.798 90.828,109.798C91.551,109.798 92.23,109.518 92.741,109.007L97.693,104.053C98.204,103.543 98.486,102.863 98.486,102.141C98.486,101.419 98.204,100.74 97.693,100.229L97.648,100.183L96.437,98.973L84.055,86.59ZM96.498,102.857L91.545,107.81C91.147,108.192 90.51,108.192 90.112,107.81L74.77,92.468C74.378,92.075 74.378,91.429 74.77,91.036L79.723,86.083C79.913,85.893 80.17,85.786 80.439,85.786C80.708,85.786 80.965,85.893 81.155,86.083L96.498,101.425C96.688,101.616 96.794,101.871 96.794,102.141C96.794,102.412 96.689,102.666 96.498,102.857" style="fill-rule:nonzero;"/>
                        </g>
                    </g>
                    <g>
                        <path d="M77.141,43.285C77.148,43.068 77.06,42.859 76.899,42.714C76.737,42.567 76.525,42.488 76.306,42.494C76.014,42.494 75.75,42.626 75.516,42.89L63.306,59.052C63.14,59.232 63.047,59.467 63.043,59.711C63.043,59.974 63.145,60.164 63.35,60.281C63.5,60.399 63.686,60.461 63.877,60.457C64.229,60.457 64.492,60.325 64.667,60.062L76.922,43.9C77.067,43.728 77.145,43.51 77.142,43.285" style="fill-rule:nonzero;"/>
                    </g>
                    <g>
                        <path d="M77.624,58.108C77.214,58.562 76.644,58.788 75.912,58.788C75.209,58.788 74.652,58.562 74.242,58.108C73.832,57.655 73.627,57.061 73.627,56.328C73.627,55.626 73.832,55.055 74.242,54.616C74.652,54.176 75.209,53.958 75.912,53.958C76.643,53.958 77.214,54.177 77.624,54.616C78.034,55.056 78.239,55.626 78.239,56.328C78.239,57.061 78.034,57.655 77.624,58.108M75.912,52.332C74.74,52.332 73.744,52.714 72.924,53.474C72.104,54.236 71.695,55.187 71.695,56.328C71.695,57.5 72.105,58.466 72.925,59.228C73.744,59.988 74.74,60.369 75.912,60.369C77.112,60.369 78.107,59.989 78.898,59.228C79.688,58.466 80.084,57.5 80.084,56.328C80.084,55.187 79.688,54.236 78.898,53.474C78.108,52.714 77.112,52.332 75.912,52.332" style="fill-rule:nonzero;"/>
                    </g>
                    <g>
                        <path d="M62.692,46.491C62.692,45.788 62.897,45.211 63.307,44.756C63.717,44.303 64.288,44.076 65.02,44.076C65.723,44.076 66.286,44.303 66.71,44.756C67.135,45.211 67.347,45.788 67.347,46.491C67.347,47.224 67.135,47.809 66.71,48.248C66.286,48.688 65.723,48.907 65.02,48.907C64.288,48.907 63.716,48.687 63.307,48.247C62.897,47.809 62.692,47.224 62.692,46.491M67.984,49.368C68.76,48.621 69.148,47.662 69.148,46.491C69.148,45.321 68.76,44.354 67.984,43.593C67.209,42.831 66.22,42.451 65.02,42.451C63.848,42.451 62.846,42.831 62.011,43.593C61.177,44.353 60.76,45.321 60.76,46.491C60.76,47.663 61.177,48.621 62.011,49.368C62.846,50.114 63.848,50.488 65.02,50.488C66.22,50.488 67.209,50.114 67.984,49.368" style="fill-rule:nonzero;"/>
                    </g>
                </g>
            </g>
        </g>
    </g>
</svg>
